symbolic/24x24/apps/kali-set.svg

<svg width="24" height="24" version="1.1" xmlns="http://www.w3.org/2000/svg">
 <g transform="translate(1,1)">
  <path d="m 12,1.5 a 8,8 0 0 0 -8,8 8,8 0 0 0 0.00781,0.253906 L 3.4589844,10.705078 2.1347656,13 A 1.0001,1.0001 0 0 0 3,14.5 h 1 v 2.578125 C 4,17.865388 4.6346119,18.5 5.421875,18.5 H 8 v 1.578125 C 8,20.865388 8.6346119,21.5 9.421875,21.5 h 6.15625 C 16.365388,21.5 17,20.865388 17,20.078125 V 15.744141 A 8,8 0 0 0 20,9.5 8,8 0 0 0 12,1.5 Z" style="opacity:.2"/>
  <circle cx="12" cy="9" r="8" style="fill:#28b628"/>
  <rect x="4" y="9" width="9" height="9" rx="1.421" ry="1.421" style="fill:#28b628"/>
  <rect x="8" y="12" width="9" height="9" rx="1.421" ry="1.421" style="fill:#28b628"/>
  <path d="m5.5977685 7.4091795a1.0001 1.0001 0 0 0-0.8125 0.4990235l-1.3261719 2.295899-1.3251952 2.295898a1.0001 1.0001 0 0 0 0.8662108 1.5h5.3017583a1.0001 1.0001 0 0 0 0.8662105-1.5l-1.325195-2.295898-1.326172-2.295899a1.0001 1.0001 0 0 0-0.819336-0.4990235 1.0001 1.0001 0 0 0-0.099609 0z" style="fill:#28b628"/>
  <path d="M 12,1 A 8,8 0 0 0 4,9 8,8 0 0 0 4.00781,9.253906 8,8 0 0 1 12,1.5 8,8 0 0 1 19.988281,9.25 8,8 0 0 0 20,9 8,8 0 0 0 12,1 Z M 4.0078125,9.253906 3.4589844,10.205078 2.1347656,12.5 A 1.0001,1.0001 0 0 0 2.0332031,13.25 1.0001,1.0001 0 0 1 2.1347656,13 L 3.4589844,10.705078 4.0078125,9.753906 A 8,8 0 0 1 4,9.5 8,8 0 0 1 4.00781,9.253906 Z" style="fill:#ffffff;opacity:.2"/>
  <path d="m12 9.5s-2 0-2-2 2-3 2-3v3h2v-3s2 1 2 3-2 2-2 2v12h-2z" style="opacity:.2"/>
  <path d="m12 9s-2 0-2-2 2-3 2-3v3h2v-3s2 1 2 3-2 2-2 2v12h-2z" style="fill:#ffffff"/>
 </g>
</svg>

<svg width="24" height="24" xmlns="http://www.w3.org/2000/svg"><g transform="translate(1 1)"><path d="M12 1.5a8 8 0 0 0-8 8 8 8 0 0 0 .008.254l-.549.951L2.135 13A1 1 0 0 0 3 14.5h1v2.578A1.42 1.42 0 0 0 5.422 18.5H8v1.578A1.42 1.42 0 0 0 9.422 21.5h6.156A1.42 1.42 0 0 0 17 20.078v-4.334A8 8 0 0 0 20 9.5a8 8 0 0 0-8-8z" style="opacity:.2"/><circle cx="12" cy="9" r="8" style="fill:#28b628"/><rect x="4" y="9" width="9" height="9" rx="1.421" ry="1.421" style="fill:#28b628"/><rect x="8" y="12" width="9" height="9" rx="1.421" ry="1.421" style="fill:#28b628"/><path d="M5.598 7.41a1 1 0 0 0-.813.498L3.46 10.204 2.134 12.5A1 1 0 0 0 3 14h5.302a1 1 0 0 0 .866-1.5l-1.325-2.296-1.326-2.296a1 1 0 0 0-.82-.499 1 1 0 0 0-.1 0z" style="fill:#28b628"/><path d="M12 1a8 8 0 0 0-8 8 8 8 0 0 0 .008.254A8 8 0 0 1 12 1.5a8 8 0 0 1 7.988 7.75A8 8 0 0 0 20 9a8 8 0 0 0-8-8zM4.008 9.254l-.549.951L2.135 12.5a1 1 0 0 0-.102.75 1 1 0 0 1 .102-.25l1.324-2.295.549-.951A8 8 0 0 1 4 9.5a8 8 0 0 1 .008-.246z" style="fill:#fff;opacity:.2"/><path d="M12 9.5s-2 0-2-2 2-3 2-3v3h2v-3s2 1 2 3-2 2-2 2v12h-2z" style="opacity:.2"/><path d="M12 9s-2 0-2-2 2-3 2-3v3h2V4s2 1 2 3-2 2-2 2v12h-2z" style="fill:#fff"/></g></svg>
